X:1
T:No Other Name
T:Philip Paul Bliss, 1875
T:No Other Name
T:Public Domain
T:Public Domain
C:Philip Paul Bliss, 1875
Z:Public Domain
%%score ( 1 2 ) ( 3 4 )
L:1/8
M:3/4
K:F
V:1 treble 
V:2 treble 
V:3 bass 
V:4 bass 
V:1
 (FA) | [Fc]3 [Fd] [Fc]>[FB] | (A>B) [Fc]2 [FA]2 | [EG]3 [FA] [GB]>[FA] | [EG]4 (FA) | %5
w: 1.~One *|fer of sal- va-|tion, * To all|world make known; The|on- ly *|
w: 2.~One *|ly door of Heav-|en * Stands o-|wide to- day, One|sac- ri- *|
w: 3.~My *|ly song and sto-|ry * Is— Je-|died for me; My|on- ly *|
 [Fc]3 [Fd] [Fc]>[FB] | (A>B) [Fc]2 [FA]2 | [EG]>[Ec] [Dc]2 [F=B]2 | [Ec]4 ||"^Refrain" [Ec]2 | %10
w: found- a- tion Is|Christ * the Cor-|stone. * * *|||
w: is giv- en, ’Tis|Christ, * the liv-|way. * * *|||
w: of glo- ry, The|Cross * of Cal-|ry. * * *|||
 [Fc]3 [FA] [Fd]>[Fc] | (c>B) [FA]2 [FA]2 | [GB]3 [EG] [Ac]>[GB] | [FA]4 (FA) | %14
w: ||||
w: ||||
w: ||||
 [Fc]>[F=B] [Fc]2 [FA]2 | [Fd]>[E^c] [Fd]2 [^Gf]2 | [Ac]3 [FA] [EB]>[EG] | F4 |] %18
w: ||||
w: ||||
w: ||||
V:2
 F2 | x6 | F2 x4 | x6 | x4 F2 | x6 | F2 x4 | x6 | x4 || x2 | x6 | F2 x4 | x6 | x4 F2 | x6 | x6 | %16
w: of-||the||sure||ner-||||||||||
w: on-||pen||fice||ing||||||||||
w: on-||sus||hope||va-||||||||||
 x6 | F4 |] %18
w: ||
w: ||
w: ||
V:3
 [F,A,]2 | [F,A,]3 [F,B,] [F,A,]>[F,G,] | (F,>G,) [F,A,]2 [F,C]2 | [C,C]3 [C,C] [C,C]>[C,C] | %4
w: ~|~ ~ ~ ~|~ * ~ ~|~ ~ ~ ~|
 [C,C]4 [F,A,]2 | [F,A,]3 [F,B,] [F,A,]>[F,G,] | (F,>G,) [F,A,]2 [F,C]2 | [G,C]>[G,C] G,2 G,2 | %8
w: ~ ~|~ ~ ~ ~|~ * ~ ~|~ ~ ~ No|
 [C,G,]4 || [C,B,]2 | [F,A,]3 F, [F,B,]>[F,A,] | (A,>G,) F,2 [F,C]2 | [C,C]3 [C,C] [C,C]>[C,C] | %13
w: name|is|giv- en, No o-|way * is known,|sus Christ the First|
 [F,C]4 [F,A,]2 | [F,A,]>[F,^G,] [F,A,]2 [F,C]2 | B,>_B, _B,2 [=B,D]2 | [CF]3 [C,C] [C,C]>[C,B,] | %17
w: and Last,|He saves, and He|a- lone. * *||
 [F,A,]4 |] %18
w: |
V:4
 x2 | x6 | F,2 x4 | x6 | x6 | x6 | F,2 x4 | x2 G,2 G,2 | x4 || x2 | x3 F, x2 | F,2 F,2 x2 | x6 | %13
w: ||~||||~|o- ther|||ther|’Tis Je-||
 x6 | x6 | =B,>=B, =B,2 x2 | x6 | x4 |] %18
w: |||||

